packages/symbols/svgs/duotone/crown-duotone.svg

<svg width="24" height="24" viewBox="0 0 24 24" fill="none" xmlns="http://www.w3.org/2000/svg">
<path fill-rule="evenodd" clip-rule="evenodd" d="M12 0C10.6193 0 9.5 1.11929 9.5 2.5C9.5 3.2764 9.85392 3.97014 10.4092 4.42868L8.50544 11.0912L4.82781 7.41358C4.93896 7.13059 5 6.82242 5 6.5C5 5.11929 3.88071 4 2.5 4C1.11929 4 0 5.11929 0 6.5C0 7.76378 0.937739 8.80855 2.15536 8.97644L5.03711 19.2696C5.18601 19.8014 5.73785 20.1119 6.26969 19.963C6.80152 19.8141 7.11196 19.2622 6.96306 18.7304L4.49279 9.90699L8.29293 13.7071C8.54347 13.9577 8.90788 14.0569 9.25086 13.9681C9.59385 13.8792 9.8642 13.6154 9.96155 13.2748L12 6.14105L14.0384 13.2748C14.1358 13.6154 14.4061 13.8792 14.7491 13.9681C15.0921 14.0569 15.4565 13.9577 15.707 13.7071L19.5074 9.9068L17.037 18.7304C16.8881 19.2622 17.1986 19.8141 17.7304 19.963C18.2622 20.1119 18.8141 19.8014 18.963 19.2696L21.8447 8.97643C23.0623 8.80849 24 7.76375 24 6.5C24 5.11929 22.8807 4 21.5 4C20.1193 4 19 5.11929 19 6.5C19 6.82241 19.061 7.13057 19.1722 7.41355L15.4945 11.0912L13.5907 4.42871C14.1461 3.97017 14.5 3.27642 14.5 2.5C14.5 1.11929 13.3807 0 12 0Z" fill="black"/>
<path opacity="0.5" fill-rule="evenodd" clip-rule="evenodd" d="M2 19C2 18.4477 2.44772 18 3 18H21C21.5523 18 22 18.4477 22 19V23C22 23.5523 21.5523 24 21 24H3C2.44772 24 2 23.5523 2 23V19ZM4 20V22H20V20H4Z" fill="black"/>
</svg>

<svg width="24" height="24" viewBox="0 0 24 24" xmlns="http://www.w3.org/2000/svg"><path fill-rule="evenodd" clip-rule="evenodd" d="M12 0a2.5 2.5 0 0 0-1.59 4.429L8.504 11.09 4.828 7.414a2.5 2.5 0 1 0-2.672 1.563l2.88 10.293a1 1 0 0 0 1.926-.54l-2.47-8.823 3.8 3.8a1 1 0 0 0 1.669-.432L12 6.14l2.038 7.134a1 1 0 0 0 1.669.432l3.8-3.8-2.47 8.823a1 1 0 0 0 1.926.54l2.882-10.294a2.5 2.5 0 1 0-2.673-1.562l-3.678 3.677-1.903-6.662A2.5 2.5 0 0 0 12 0Z"/><path opacity=".5" fill-rule="evenodd" clip-rule="evenodd" d="M2 19a1 1 0 0 1 1-1h18a1 1 0 0 1 1 1v4a1 1 0 0 1-1 1H3a1 1 0 0 1-1-1v-4Zm2 1v2h16v-2H4Z"/></svg>
